!!!ONB: MCCC : ILB0324_03 : Extracted Monophonic Melody
!!!COM: Beethoven, Ludwig van
!!!OPR: Violin Sonata No.3 in E-flat major
!!!OMV: 3
!!!SCT: Op.12 No.3
!!!ODT: 1797///
**kern
*staff1
*clefG2
*k[b-e-a-]
*E-:
*M2/4
=9
8b-
8b-
4ee-
=10
8b-
8b-
4ff
=11
8b-
8b-
8gg
8gg
=12
8gg
16bb-
16aa-
8gg
8ff
=13
8bb-
8bb-
4eee-
=14
8gg
8gg
4ccc
=15
8ff
8ff
8bb-
16gg
16ee-
=16
8aa-
16ff
16dd
4ee-
=17
2r
=18
2r
=19
2r
=20
2r
=21
16gg
16ff
16ee-
16dd
16cc
16b
16a-
16g
=22
8g
8g
32a-
32g
32f#
32g
8cc
=23
8g
8dd
8g
8ee-
=24
8e-
8a
4b-
=25
4r
4f[
=26
8f]
8e-
8d
8f
=27
4ff[
16ff]
16ee-
16cc
16a
=28
16f
16e-
16c
16A
4B-
=29
4r
4f[
=30
8f]
8e-
8d
8f
=31
4ff[
16ff]
16dd
16b-
16a-
=32
16f
16d
16B-
16A-
4e-
=33
8B-
8B-
4f
=34
8B-
8B-
8g
8g
=35
8g
16b-
16a-
8g
8f
=36
8b-
8b-
4ee-
=37
8g
8g
4cc
=38
8f
8f
8b-
16g
16e-
=39
8a-
16f
16d
4e-
=40
8g
8g
4a-[
=41
4a-]
8g
8ff
=42
8ee-
8dd
8cc
8b
=43
8cc
8b
4cc
=44
8g
8g
4a[
=45
4a]
8b-
8ee-
=46
8dd
8cc
8b-
8a
=47
8b-
8a
4b-
=48
8a
8a
4b-
=49
8b
8b
4cc
=50
8dd-
8dd-
8dd
8dd
=51
8ee
8ee
4ff
=52
8f
8f
8.dd
32ee-
32dd
=53
8b-
8dd
8ff
8ff
=54
24gg
24ff
24gg
24ff
24ee
24ff
8.ee-
32ff
32ee-
=55
8cc
8ee-
4gg[
=56
4gg]
8.gg
32aa
32gg
=57
8ee-
8gg
8bb-
8bb-
=58
24ccc
24bb-
24ccc
24bb-
24aa
24bb-
8ee-
16cc
16ee-
=59
8dd
16b-
16dd
16cc
16b-
16a
16g
=60
16f
16e-
16d
16c
16B-
16e
16f
16e
=61
16f
16e
16f
16d
16c
16f
16A
16f
=62
16c
16f
16A
16f
16G
16g-
16g
16f#
=63
16g
16f#
16g
16e-
16d
16g
16B-
16g
=64
16d
16g
16B-
16g
16B-
16a
16b-
16a
=65
16b-
16a
16b-
16g
16f
16b-
16d
16b-
=66
16f
16b-
16d
16b-
16g
16b
16cc
16b-
=67
16a
16g
16f
16e-
4d
=68
2r
=69
4r
8dd
16bb-
16ddd
=70
16ff
16bb-
16dd
16ff
16ee-
16gg
16cc
16ee-
=71
16a
16cc
16f
16a
4b-
=72
8r
16cc
16b-
4a
=73
8r
16ff
16ee-
4dd
=74
8r
16ff
16ee-
4dd
=75
8r
16ff
16ee-
4dd
=76
2r
=77
2r
=78
2r
=79
8b-
8b-
4ee-
=80
8b-
8b-
4ff
=81
8b-
8b-
8gg
8gg
=82
8gg
16bb-
16aa-
8gg
8ff
=83
8bb-
8bb-
4eee-
=84
8gg
8gg
4ccc
=85
8ff
8ff
8bb-
16gg
16ee-
=86
8aa-
16ff
16dd
4ee-
=87
4r
16G
16B-
16e-
16B-
=88
16G
16B-
16G
16B-
16A-
16B-
16f
16B-
=89
16A-
16B-
16A-
16B-
16G
16B-
16e-
16B-
=90
16e-
16c
16f
16c
16e-
16B-
16d
16B-
=91
16d
16B-
16d
16B-
16e-
16B-
16G
16B-
=92
16e-
16B-
16e-
16B-
16e-
16c
16A-
16c
=93
16e-
16c
16e-
16c
16G
16B-
16e-
16g
=94
16d
16f
16a-
16a-
4g
=95
2r
=96
2gg-[
=97
4.gg-]
8gg
=98
8aa-
8bb-
4bb
=99
2r
=100
2aa-[
=101
4.aa-]
8aa-
=102
8bb-
8bb
4ddd-
=103
2r
=104
2bb-[
=105
4.bb-]
8bb-
=106
8bb
8ddd-
8eee-
8ddd-
=107
8bb-
8bb
8aa-
8bb-
=108
8gg-
8aa-
4dd-
=109
4ff
8gg-
8dd-
=110
8dd-
8dd-
8dd-
8dd-
=111
8dd-
8dd-
8dd-
8dd-
=112
8dd-
8dd-
8dd-
8dd-
=113
8dd-
8dd-
8dd-
8dd-
=114
8dd-
8dd-
8dd
8dd
=115
8dd
8dd
8ee-
8ee-
=116
8ee-
8ee-
8ff
8ff
=117
8ff
8ff
8gg-
8aa-
=118
8gg-
8ff
8ee-
8ff
=119
8ee-
8dd-
8b
8dd-
=120
8b
8b-
8a-
16b-
16b
=121
16dd-
16ee-
16ff
16gg-
8aa-
8bb-
=122
8aa-
8gg-
8ff
8gg-
=123
8ff
8ee-
8dd-
8ee-
=124
8dd-
8b
4b-
=125
2r
=126
2ddd-[
=127
4.ddd-]
8ddd
=128
8eee-
8fff
8ggg-
8fff
=129
8ddd-
8eee-
8ccc
8ddd-
=130
8bb-
8ccc
4ff
=131
4aa
8bb-
8ff
=132
8ff
8ff
8ff
8ff
=133
8ff
8ff
8ff
8ff
=134
8ff
8ff
8ff
8ff
=135
8ff
8ff
8ff
8ff
=136
8ff
8ff
8ff
8ff
=137
8ff
8ff
8ff
8ff
=138
8ff
8ff
8ff
8dd
=139
8dd
8dd
8ee-
8b-
=140
8ee-
8dd-
8b
8g-
=141
8b
8b-
8a-
8e-
=142
8a-
8g-
4f
=143
4r
8ff
8ee
=144
8ff
8ee-
8dd-
8cc
=145
8dd-
8b
8b-
8a
=146
8b-
8a-
4g-
=147
4r
16b-
16b
16dd-
16b
=148
16a#
16b
16b-
16a-
16g-
16a-
16b-
16a-
=149
16g-
16a-
16g-
16f
16e-
16f
16g-
16f
=150
16e-
16f
16e-
16d-
16B
16d-
16e-
16d-
=151
16B
16d-
16B
16B-
16A-
16B-
16A
16B-
=152
16A
16B-
16A
16B-
4f
=153
4f
4r
=154
8ee-
8dd-
8b
8g-
=155
8b
8b-
8a-
8e-
=156
8a-
8g-
8f
8B
=157
8f
8e-
4d[
=158
8d]
8e-
4f[
=159
8f]
8e-
4d[
=160
8d]
8e-
4f[
=161
8f]
8e-
4d[
=162
8d]
8c
4B-[
=163
8B-]
8A-
16G
16B-
16e-
16B-
=164
16G
16B-
16G
16B-
16A-
16B-
16f
16B-
=165
16A-
16B-
16A-
16B-
16G
16B-
16e-
16B-
=166
16e-
16c
16f
16c
16e-
16B-
16d
16B-
=167
16d
16B-
16d
16B-
16e-
16B-
16G
16B-
=168
16e-
16B-
16e-
16B-
16e-
16c
16A-
16c
=169
16e-
16c
16e-
16c
16G
16B-
16e-
16g
=170
16d
16f
16a-
16a-
4g
=171
8ee-
8ee-
4aa-
=172
8cc
8cc
4ff
=173
8b-
8b-
8ee-
16cc
16a-
=174
8dd-
16b-
16g
4a-
=175
2r
=176
2r
=177
2r
=178
2r
=179
16ccc
16bb-
16aa-
16gg
16ff
16ee
16dd-
16cc
=180
8cc
8cc
32dd-
32cc
32b
32cc
8ff
=181
8cc
8cc
8cc
8gg
=182
8cc
8aa-
8cc
8bb-
=183
8cc
8cc
4dd-[
=184
4dd-]
8cc
8bb-
=185
8aa-
8gg
8ff
8ee
=186
8ff
8e
4f
=187
8cc
8cc
4dd[
=188
4dd]
8ee-
8aa-
=189
8gg
8ff
8ee-
8dd
=190
8ee-
8d
4e-
=191
8dd
8dd
4ee-
=192
8ee
8ee
4ff
=193
8gg-
8gg-
8gg
8gg
=194
8aa
8aa
4bb-
=195
8b-
8b-
8.gg
32aa-
32gg
=196
8ee-
8gg
8bb-
8bb-
=197
24ccc
24bb-
24ccc
24bb-
24aa
24bb-
8.aa-
32bb-
32aa-
=198
8ff
8aa-
4ccc[
=199
4ccc]
8.ccc
32ddd
32ccc
=200
8aa-
8ccc
8eee-
8eee-
=201
24fff
24eee-
24fff
24eee-
24ddd
24eee-
8aa-
16ff
16aa-
=202
8gg
16ee-
16gg
16ff
16ee-
16dd
16cc
=203
16b-
16a-
16g
16f
16e-
16B-
16e-
16g
=204
16a
16b-
16a
16b-
16f
16b-
16d
16b-
=205
16f
16b-
16d
16b-
16c
16f
16a-
16cc
=206
16b
16cc
16b
16cc
16g
16cc
16e-
16cc
=207
16g
16cc
16e-
16cc
16e-
16a-
16cc
16ee-
=208
16dd
16ee-
16dd
16ee-
16b-
16ee-
16g
16ee-
=209
16b-
16ee-
16g
16ee-
16a-
16cc
16b-
16a-
=210
16f
16a-
16g
16f
4g
=211
2r
=212
4r
8g
16ee-
16gg
=213
16b-
16ee-
16g
16b-
16a-
16cc
16f
16a-
=214
16d
16f
16B-
16d
4e-
=215
8r
16f
16e-
4d
=216
8r
16b-
16a-
4g
=217
8r
16ff
16ee-
4dd
=218
8r
16b-
16a-
4g
=219
4r
4ee-[
=220
8ee-]
8ee-
4ee-[
=221
8ee-]
8ee-
4ee[
=222
8ee]
8ee
8ff
8ff
=223
8r
8gg
8r
8aa-
=224
8r
8aa
4bb-
=225
2r
=226
4r
8r
16gg
16aa-
=227
4bb-
8r
16aa-
16bb-
=228
4ccc
8r
16dd
16ee-
=229
8ff
16ee-
16ff
8gg
16ee-
16ff
=230
8gg
16gg
16aa-
4bb
=231
8dd
8dd
4gg
=232
8cc
8cc
8ff
8ff
=233
16ff
16gg
16ff
16ee-
16dd
16ee-
16dd
16cc
=234
16b-
16cc
16b-
16a-
8g
16g
16a-
=235
4b-
8r
16a-
16b-
=236
4cc
8r
16d
16e-
=237
16f
16B-
16c
16d
8e-
8ee-
=238
8cc
8ee-
8dd
8ff
=239
8b
8dd
8cc
16cc
16dd
=240
16ee-
16gg-
16ff
16ee-
16dd-
16cc
16dd-
16b-
=241
16dd-
16ff
16ee-
16dd-
16cc
16b
16cc
16a-
=242
16dd-
16ee-
16dd-
16cc
16b-
16a
16b-
16g
=243
16cc
16dd-
16cc
16b-
16a-
16g
16a-
16f
=244
16b-
16cc
16b-
16a-
16g
16f
16e-
16d
=245
16e-
16f
16g
16a
4b-
=246
8bb-
8bb-
4eee-
=247
8gg
8gg
4ccc
=248
8ff
8ff
4bb-
=249
8ee-
8ee-
8aa-
8aa-
=250
16aa-
16ccc
16bb-
16aa-
16gg
16bb-
16aa-
16gg
=251
16ff
16aa-
16gg
16ff
16ee-
16gg
16ff
16ee-
=252
16dd
16ff
16ee-
16dd
16cc
16ee-
16dd
16cc
=253
16b-
16dd-
16cc
16b-
16a-
16cc
16b-
16a-
=254
16g
16b-
16a-
16g
16g
16f
16g
16f
=255
16g
16f
16g
16f
16gg
16ff
16gg
16ff
=256
16gg
16ff
16gg
16ff
16ccc
16bb-
16ccc
16bb-
=257
16ccc
16bb-
16ccc
16bb-
16ccc
16bb-
16ccc
16bb-
=258
16ccc
16bb-
16ccc
16bb-
4eee-
=259
8ee-
8ee-
8ee-
8ee-
=260
8ee-
16ff
16gg
8aa-
8aa-
=261
8aa-
16bb-
16ccc
8bb-
8bb-
=262
16bb-
16aa-
16gg
16ff
8gg
8ee-
=263
8ee-
8ee-
8ee-
8ee-
=264
8ee-
16ff
16gg
8aa-
8aa-
=265
8aa-
16bb-
16ccc
8bb-
8bb-
=266
16bb-
16aa-
16gg
16ff
4gg
=267
8eee-
8eee-
8eee-
8ddd
=268
8ccc
8ddd
8eee-
8bb-
=269
8bb-
8bb-
8bb-
8aa-
=270
8gg
8aa-
8gg
8bb-
=271
8eee-
8eee-
8eee-
8ddd
=272
8ccc
8ddd
8eee-
8bb-
=273
8bb-
8bb-
8bb-
8aa-
=274
8gg
8aa-
4gg
=275
8bb-
8bb-
4eee-
=276
16bb-
16aa-
16gg
16aa-
4gg
=277
16gg
16ff
16ee-
16ff
4ee-
=278
8dd
24dd
24r
24e-[
4e-]
=279
2r
==
*-
